!!!OTL: Down by the Tan-Yard Side
!!!ONM: 76.
**kern
*clefG2
*k[b-e-]
*B-:
*M6/8
*MM76
{8f
=1
4f
8f
(8d
8e-)
8f
=2
4.b-
4f}
{8d
=3
4e-
8c
4B-
8A
=4
[4.B-
4B-]}
{8f
=5
4b-
8cc
4dd
8cc
=6
4b-
8cc
4f}
{8g
=7
4a-
8f
(8e-
8d)
8e-
=8
[4.f
4f]}
{16f
16f
=9
4b-
8cc
4dd
8cc
=10
4b-
8cc
4f}
{16g
16g
=11
4a-
(16f
16e-)
4c
8e-
=12
[4.f
4f]}
{16e-
16e-
=13
4e-
8d
4e-
16g
16b-
=14
4b-
8a
4f}
{8d
=15
4e-
8d
4B-
8A
=16
[4.B-
4B-]}
==
*-
!!!CNT: Folksongs of Maritime Canada
!!!MRD: 1928///-1932///
!!!OCL: Helen Creighton
!!!YOR: Songs and Ballads from Nova Scotia
!!!PPR: J.M. Dent & Sons, Limited
!!!PPP: Toronto, Canada
!!!PDT: 1932///
!!!reprint: Dover Publications, 1992: ISBN 0-486-21703-5
!!!ENC1: Craig Stuart Sapp (music and bibliographic data)                       
!!!ENC2: Marcus Pearce (phrase markings and key designations)                   
!!!ENC3: Darrell Conklin (phrase markings and key designations)   
!!!END: 2002/04/10/
!!!EEV: 2004/06/05
!!!MPN: Mr. Patrick Williams
!!!PPG: 165
!!!EFL: 77/152
!!!ARE: Canada; Nova Scotia
!!!verses: 5
!!!VTS: 4070058950
